; generated by Slic3r Prusa Edition 1.40.1+ on 2020-11-13 at 13:06:33

; 

; external perimeters extrusion width = 0.45mm
; perimeters extrusion width = 0.45mm
; infill extrusion width = 0.45mm
; solid infill extrusion width = 0.45mm
; top infill extrusion width = 0.40mm
; first layer extrusion width = 0.42mm

; external perimeters extrusion width = 0.45mm
; perimeters extrusion width = 0.45mm
; infill extrusion width = 0.45mm
; solid infill extrusion width = 0.45mm
; top infill extrusion width = 0.40mm
; first layer extrusion width = 0.42mm

M107
M115 U3.8.1 ; tell printer latest fw version
M201 X1000 Y1000 Z1000 E9000 ; sets maximum accelerations, mm/sec^2
M203 X200 Y200 Z12 E120 ; sets maximum feedrates, mm/sec
M204 S1250 T1250 ; sets acceleration (S) and retract acceleration (T)
M205 X8 Y8 Z0.4 E1.5 ; sets the jerk limits, mm/sec
M205 S0 T0 ; sets the minimum extruding and travel feed rate, mm/sec
M83  ; extruder relative mode
M104 S255 ; set extruder temp
M140 S110 ; set bed temp
M190 S110 ; wait for bed temp
M109 S255 ; wait for extruder temp
G28 W ; home all without mesh bed level
G80 ; mesh bed leveling
G1 Y-3.0 F1000.0 ; go outside print area
G92 E0.0
G1 X60.0 E9.0  F1000.0 ; intro line
G1 X100.0 E12.5  F1000.0 ; intro line
G92 E0.0
M221 S95
M900 K30; Filament gcode
G21 ; set units to millimeters
G90 ; use absolute coordinates
M83 ; use relative distances for extrusion
T0
M900 K30; Filament gcode
;BEFORE_LAYER_CHANGE
G92 E0.0
;0.2


G1 E-0.80000 F2100.00000
G1 Z0.600 F10800.000
;AFTER_LAYER_CHANGE
;0.2
G1 X77.840 Y69.911
G1 Z0.200
G1 E0.80000 F2100.00000
M204 S1000
G1 F1800
G1 X78.962 Y69.097 E0.04347
G1 X80.042 Y68.675 E0.03636
G1 X81.259 Y68.517 E0.03848
G1 X168.724 Y68.517 E2.74240
G1 X169.747 Y68.630 E0.03227
G1 X170.353 Y68.805 E0.01976
G1 X171.265 Y69.223 E0.03145
G1 X172.185 Y69.936 E0.03650
G1 X172.845 Y70.747 E0.03278
G1 X173.150 Y71.284 E0.01936
G1 X173.503 Y72.220 E0.03137
G1 X173.659 Y73.316 E0.03473
G1 X173.657 Y112.358 E1.22412
G1 X173.473 Y113.530 E0.03721
G1 X172.946 Y114.741 E0.04140
G1 X172.158 Y115.729 E0.03962
G1 X171.038 Y116.543 E0.04341
G1 X122.312 Y140.906 E1.70809
G1 X121.565 Y141.222 E0.02544
G1 X121.018 Y141.372 E0.01778
G1 X120.050 Y141.482 E0.03054
G1 X105.576 Y141.482 E0.45382
G1 X104.592 Y141.366 E0.03109
G1 X104.003 Y141.193 E0.01923
G1 X103.106 Y140.783 E0.03092
G1 X102.209 Y140.097 E0.03544
G1 X77.773 Y115.663 E1.08347
G1 X76.917 Y114.498 E0.04533
G1 X76.497 Y113.426 E0.03610
G1 X76.339 Y112.229 E0.03787
G1 X76.340 Y73.329 E1.21968
G1 X76.523 Y72.119 E0.03836
G1 X77.043 Y70.918 E0.04103
G1 X77.803 Y69.958 E0.03838
G1 X78.095 Y70.189 F10800.000
G1 F1800
G1 X79.137 Y69.431 E0.04040
G1 X80.133 Y69.041 E0.03355
G1 X81.265 Y68.894 E0.03577
G1 X168.724 Y68.894 E2.74222
G1 X169.678 Y69.001 E0.03010
G1 X170.206 Y69.152 E0.01721
G1 X171.058 Y69.539 E0.02933
G1 X171.906 Y70.191 E0.03355
G1 X172.528 Y70.952 E0.03082
G1 X172.793 Y71.410 E0.01660
G1 X173.130 Y72.280 E0.02925
G1 X173.276 Y73.243 E0.03055
G1 X173.285 Y112.220 E1.22208
G1 X173.117 Y113.405 E0.03754
G1 X172.604 Y114.577 E0.04013
G1 X171.892 Y115.462 E0.03561
G1 X170.895 Y116.193 E0.03876
G1 X122.140 Y140.570 E1.70910
G1 X121.162 Y140.955 E0.03296
G1 X120.083 Y141.104 E0.03417
G1 X105.628 Y141.106 E0.45321
G1 X104.450 Y140.948 E0.03726
G1 X103.346 Y140.488 E0.03749
G1 X102.420 Y139.776 E0.03663
G1 X78.049 Y115.406 E1.08064
G1 X77.249 Y114.319 E0.04229
G1 X76.862 Y113.331 E0.03330
G1 X76.716 Y112.222 E0.03506
G1 X76.717 Y73.353 E1.21870
G1 X76.884 Y72.228 E0.03566
G1 X77.362 Y71.119 E0.03789
G1 X78.058 Y70.237 E0.03523
G1 F8640
G1 X79.137 Y69.431 E-0.31088
G1 X80.133 Y69.041 E-0.24704
G1 X81.001 Y68.929 E-0.20208
G1 E-0.04000 F2100.00000
G1 Z0.800 F10800.000
G1 X108.649 Y107.079
G1 Z0.200
G1 E0.80000 F2100.00000
G1 F1800
G1 X108.906 Y107.278 E0.01019
G1 X109.187 Y107.434 E0.01006
G1 X109.480 Y107.546 E0.00986
G1 X109.787 Y107.613 E0.00985
G1 X110.106 Y107.636 E0.01001
G1 X110.472 Y107.606 E0.01151
G1 X110.830 Y107.514 E0.01159
G1 X111.169 Y107.363 E0.01165
G1 X111.490 Y107.156 E0.01196
G1 X111.799 Y106.882 E0.01295
G1 X112.100 Y106.535 E0.01441
G1 X112.399 Y106.121 E0.01602
G1 X112.697 Y105.640 E0.01774
G1 X113.494 Y104.263 E0.04988
G1 X114.003 Y103.531 E0.02797
G1 X114.526 Y103.055 E0.02217
G1 X115.077 Y102.786 E0.01921
G1 X115.698 Y102.694 E0.01969
G1 X116.145 Y102.734 E0.01409
G1 X116.558 Y102.855 E0.01349
G1 X116.932 Y103.056 E0.01328
G1 X117.267 Y103.335 E0.01369
G1 X117.541 Y103.696 E0.01422
G1 X117.580 Y103.784 E0.00300
G1 X117.464 Y103.620 E0.00630
G1 X117.132 Y103.303 E0.01438
G1 X116.753 Y103.067 E0.01400
G1 X116.332 Y102.923 E0.01395
G1 X115.892 Y102.877 E0.01388
G1 X115.469 Y102.911 E0.01331
G1 X115.074 Y103.018 E0.01284
G1 X114.709 Y103.200 E0.01277
G1 X114.399 Y103.443 E0.01236
G1 X114.133 Y103.719 E0.01202
G1 X113.691 Y104.303 E0.02295
G1 X112.477 Y106.358 E0.07482
G1 X111.979 Y107.037 E0.02642
G1 X111.467 Y107.481 E0.02124
G1 X110.927 Y107.733 E0.01868
G1 X110.320 Y107.819 E0.01922
G1 X109.862 Y107.776 E0.01442
G1 X109.435 Y107.645 E0.01402
G1 X109.039 Y107.425 E0.01419
G1 X108.687 Y107.125 E0.01450
G1 F8640
G1 X108.906 Y107.278 E-0.06165
G1 X109.187 Y107.434 E-0.07409
G1 X109.480 Y107.546 E-0.07259
G1 X109.787 Y107.613 E-0.07250
G1 X110.106 Y107.636 E-0.07374
G1 X110.472 Y107.606 E-0.08479
G1 X110.830 Y107.514 E-0.08535
G1 X111.169 Y107.363 E-0.08581
G1 X111.490 Y107.156 E-0.08809
G1 X111.689 Y106.980 E-0.06138
G1 E-0.04000 F2100.00000
G1 Z0.800 F10800.000
G1 X108.041 Y102.205
G1 Z0.200
G1 E0.80000 F2100.00000
G1 F1800
G1 X108.850 Y102.205 E0.02536
G1 X108.634 Y102.717 E0.01744
G1 X108.387 Y103.495 E0.02559
G1 X108.238 Y104.241 E0.02382
G1 X108.189 Y104.950 E0.02230
G1 X108.203 Y105.248 E0.00935
G1 X108.246 Y105.538 E0.00919
G1 X108.318 Y105.821 E0.00917
G1 X108.420 Y106.099 E0.00928
G1 X108.551 Y106.362 E0.00920
G1 X108.711 Y106.595 E0.00886
G1 X108.899 Y106.796 E0.00864
G1 X109.114 Y106.962 E0.00852
G1 X109.346 Y107.091 E0.00833
G1 X109.589 Y107.184 E0.00813
G1 X109.841 Y107.239 E0.00810
G1 X110.103 Y107.258 E0.00824
G1 X110.409 Y107.232 E0.00961
G1 X110.705 Y107.156 E0.00960
G1 X110.990 Y107.030 E0.00975
G1 X111.261 Y106.855 E0.01014
G1 X111.530 Y106.616 E0.01127
G1 X111.804 Y106.301 E0.01310
G1 X112.085 Y105.911 E0.01508
G1 X112.374 Y105.446 E0.01715
G1 X113.175 Y104.061 E0.05018
G1 X113.718 Y103.280 E0.02980
G1 X114.312 Y102.740 E0.02519
G1 X114.964 Y102.421 E0.02273
G1 X115.687 Y102.315 E0.02293
G1 X116.216 Y102.362 E0.01665
G1 X116.702 Y102.505 E0.01589
G1 X117.144 Y102.742 E0.01571
G1 X117.541 Y103.073 E0.01623
G1 X117.869 Y103.504 E0.01697
G1 X118.106 Y104.048 E0.01859
G1 X118.251 Y104.713 E0.02136
G1 X118.301 Y105.504 E0.02484
G1 X118.281 Y106.044 E0.01695
G1 X118.223 Y106.578 E0.01683
G1 X118.126 Y107.102 E0.01671
G1 X118.029 Y107.468 E0.01188
G1 X117.332 Y107.468 E0.02185
G1 X117.437 Y107.161 E0.01017
G1 X117.581 Y106.574 E0.01895
G1 X117.668 Y105.993 E0.01841
G1 X117.697 Y105.417 E0.01809
G1 X117.666 Y104.971 E0.01402
G1 X117.569 Y104.561 E0.01320
G1 X117.406 Y104.192 E0.01267
G1 X117.177 Y103.867 E0.01245
G1 X116.900 Y103.603 E0.01202
G1 X116.590 Y103.410 E0.01143
G1 X116.250 Y103.294 E0.01127
G1 X115.887 Y103.255 E0.01143
G1 X115.534 Y103.284 E0.01112
G1 X115.208 Y103.372 E0.01058
G1 X114.912 Y103.521 E0.01040
G1 X114.652 Y103.724 E0.01034
G1 X114.420 Y103.965 E0.01049
G1 X114.005 Y104.513 E0.02157
G1 X112.792 Y106.565 E0.07473
G1 X112.258 Y107.294 E0.02834
G1 X111.674 Y107.800 E0.02422
G1 X111.036 Y108.099 E0.02209
G1 X110.329 Y108.199 E0.02238
G1 X109.789 Y108.148 E0.01702
G1 X109.287 Y107.994 E0.01646
G1 X108.824 Y107.737 E0.01660
G1 X108.400 Y107.377 E0.01743
G1 X108.049 Y106.905 E0.01844
G1 X107.794 Y106.302 E0.02051
G1 X107.638 Y105.559 E0.02382
G1 X107.585 Y104.670 E0.02792
G1 X107.591 Y104.377 E0.00920
G1 X107.639 Y103.798 E0.01822
G1 X107.742 Y103.223 E0.01831
G1 X108.024 Y102.262 E0.03137
G1 X108.370 Y102.433 F10800.000
G1 X108.370 Y102.394
G1 F1800
G1 X108.084 Y103.297 E0.02710
G1 X108.058 Y103.402 E0.00289
G1 X107.974 Y103.841 E0.01144
G1 X107.925 Y104.190 E0.00872
G1 X107.897 Y104.664 E0.01016
G1 X107.895 Y104.941 E0.00565
G1 X107.954 Y105.602 E0.01158
G1 X108.109 Y106.204 E0.01084
G1 X108.264 Y106.543 E0.00650
G1 X108.363 Y106.725 E0.00591
G1 X108.431 Y106.804 E0.00297
G1 X108.647 Y106.817 E0.00577
G1 F8640
G1 X108.431 Y106.804 E-0.04991
G1 E-0.75009 F2100.00000
G1 Z0.800 F10800.000
G1 X117.743 Y107.280
G1 Z0.200
G1 E0.80000 F2100.00000
G1 F1800
G1 X117.890 Y106.641 E0.01514
G1 X117.974 Y106.030 E0.01307
G1 X117.997 Y105.508 E0.01033
G1 X117.996 Y105.421 E0.00167
G1 X117.939 Y104.757 E0.01221
G1 X117.820 Y104.302 E0.00861
G1 X117.679 Y103.944 E0.01028
G1 F8640
G1 X117.820 Y104.302 E-0.08879
G1 E-0.71121 F2100.00000
G1 Z0.800 F10800.000
G1 X133.037 Y82.757
G1 Z0.200
G1 E0.80000 F2100.00000
G1 F1800
G1 X133.009 Y82.719 E0.00147
G1 X133.266 Y82.918 E0.01019
G1 X133.547 Y83.074 E0.01006
G1 X133.840 Y83.186 E0.00986
G1 X134.147 Y83.253 E0.00985
G1 X134.466 Y83.276 E0.01001
G1 X134.832 Y83.246 E0.01151
G1 X135.190 Y83.154 E0.01159
G1 X135.529 Y83.003 E0.01165
G1 X135.850 Y82.796 E0.01196
G1 X136.159 Y82.522 E0.01295
G1 X136.460 Y82.175 E0.01441
G1 X136.759 Y81.761 E0.01602
G1 X137.057 Y81.280 E0.01774
G1 X137.854 Y79.903 E0.04988
G1 X138.363 Y79.171 E0.02797
G1 X138.886 Y78.695 E0.02217
G1 X139.437 Y78.426 E0.01921
G1 X140.058 Y78.334 E0.01969
G1 X140.505 Y78.374 E0.01409
G1 X140.918 Y78.495 E0.01349
G1 X141.292 Y78.696 E0.01328
G1 X141.627 Y78.975 E0.01369
G1 X141.901 Y79.336 E0.01422
G1 X141.940 Y79.424 E0.00300
G1 X141.824 Y79.260 E0.00630
G1 X141.492 Y78.943 E0.01438
G1 X141.113 Y78.707 E0.01400
G1 X140.692 Y78.563 E0.01395
G1 X140.252 Y78.517 E0.01388
G1 X139.829 Y78.551 E0.01331
G1 X139.434 Y78.658 E0.01284
G1 X139.069 Y78.840 E0.01277
G1 X138.759 Y79.083 E0.01236
G1 X138.493 Y79.359 E0.01202
G1 X138.051 Y79.943 E0.02295
G1 X136.837 Y81.998 E0.07482
G1 X136.339 Y82.677 E0.02642
G1 X135.827 Y83.121 E0.02124
G1 X135.287 Y83.373 E0.01868
G1 X134.680 Y83.459 E0.01922
G1 X134.222 Y83.416 E0.01442
G1 X133.795 Y83.285 E0.01402
G1 X133.399 Y83.065 E0.01419
G1 X133.083 Y82.796 E0.01304
G1 F8640
G1 X133.009 Y82.719 E-0.02450
G1 X133.266 Y82.918 E-0.07502
G1 X133.547 Y83.074 E-0.07409
G1 X133.840 Y83.186 E-0.07259
G1 X134.147 Y83.253 E-0.07250
G1 X134.466 Y83.276 E-0.07374
G1 X134.832 Y83.246 E-0.08479
G1 X135.190 Y83.154 E-0.08535
G1 X135.529 Y83.003 E-0.08581
G1 X135.850 Y82.796 E-0.08809
G1 X135.926 Y82.729 E-0.02351
G1 E-0.04000 F2100.00000
G1 Z0.800 F10800.000
G1 X132.401 Y77.845
G1 Z0.200
G1 E0.80000 F2100.00000
G1 F1800
G1 X133.210 Y77.845 E0.02536
G1 X132.994 Y78.357 E0.01744
G1 X132.747 Y79.135 E0.02559
G1 X132.598 Y79.881 E0.02382
G1 X132.549 Y80.590 E0.02230
G1 X132.563 Y80.888 E0.00935
G1 X132.606 Y81.178 E0.00919
G1 X132.678 Y81.461 E0.00917
G1 X132.780 Y81.739 E0.00928
G1 X132.911 Y82.002 E0.00920
G1 X133.071 Y82.235 E0.00886
G1 X133.259 Y82.436 E0.00864
G1 X133.474 Y82.602 E0.00852
G1 X133.706 Y82.731 E0.00833
G1 X133.949 Y82.824 E0.00813
G1 X134.201 Y82.879 E0.00810
G1 X134.463 Y82.898 E0.00824
G1 X134.769 Y82.872 E0.00961
G1 X135.065 Y82.796 E0.00960
G1 X135.350 Y82.670 E0.00975
G1 X135.621 Y82.495 E0.01014
G1 X135.890 Y82.256 E0.01127
G1 X136.164 Y81.941 E0.01310
G1 X136.445 Y81.551 E0.01508
G1 X136.734 Y81.086 E0.01715
G1 X137.535 Y79.701 E0.05018
G1 X138.078 Y78.920 E0.02980
G1 X138.672 Y78.380 E0.02519
G1 X139.324 Y78.061 E0.02273
G1 X140.047 Y77.955 E0.02293
G1 X140.576 Y78.002 E0.01665
G1 X141.062 Y78.145 E0.01589
G1 X141.504 Y78.382 E0.01571
G1 X141.901 Y78.713 E0.01623
G1 X142.229 Y79.144 E0.01697
G1 X142.466 Y79.688 E0.01859
G1 X142.611 Y80.353 E0.02136
G1 X142.661 Y81.144 E0.02484
G1 X142.641 Y81.684 E0.01695
G1 X142.583 Y82.218 E0.01683
G1 X142.486 Y82.742 E0.01671
G1 X142.389 Y83.108 E0.01188
G1 X141.692 Y83.108 E0.02185
G1 X141.797 Y82.801 E0.01017
G1 X141.941 Y82.214 E0.01895
G1 X142.028 Y81.633 E0.01841
G1 X142.057 Y81.057 E0.01809
G1 X142.026 Y80.611 E0.01402
G1 X141.929 Y80.201 E0.01320
G1 X141.766 Y79.832 E0.01267
G1 X141.537 Y79.507 E0.01245
G1 X141.260 Y79.243 E0.01202
G1 X140.950 Y79.050 E0.01143
G1 X140.610 Y78.934 E0.01127
G1 X140.247 Y78.895 E0.01143
G1 X139.894 Y78.924 E0.01112
G1 X139.568 Y79.012 E0.01058
G1 X139.272 Y79.161 E0.01040
G1 X139.012 Y79.364 E0.01034
G1 X138.780 Y79.605 E0.01049
G1 X138.365 Y80.153 E0.02157
G1 X137.152 Y82.205 E0.07473
G1 X136.618 Y82.934 E0.02834
G1 X136.034 Y83.440 E0.02422
G1 X135.396 Y83.739 E0.02209
G1 X134.689 Y83.839 E0.02238
G1 X134.149 Y83.788 E0.01702
G1 X133.647 Y83.634 E0.01646
G1 X133.184 Y83.377 E0.01660
G1 X132.760 Y83.017 E0.01743
G1 X132.409 Y82.545 E0.01844
G1 X132.154 Y81.942 E0.02051
G1 X131.998 Y81.199 E0.02382
G1 X131.945 Y80.310 E0.02792
G1 X131.951 Y80.017 E0.00920
G1 X131.999 Y79.438 E0.01822
G1 X132.102 Y78.863 E0.01831
G1 X132.384 Y77.902 E0.03137
G1 X132.730 Y78.073 F10800.000
G1 X132.730 Y78.034
G1 F1800
G1 X132.444 Y78.937 E0.02710
G1 X132.418 Y79.042 E0.00289
G1 X132.334 Y79.481 E0.01144
G1 X132.285 Y79.830 E0.00872
G1 X132.257 Y80.304 E0.01016
G1 X132.255 Y80.581 E0.00565
G1 X132.314 Y81.242 E0.01158
G1 X132.469 Y81.844 E0.01084
G1 X132.624 Y82.183 E0.00650
G1 X132.723 Y82.365 E0.00591
G1 X132.791 Y82.444 E0.00297
G1 X133.007 Y82.457 E0.00577
G1 F8640
G1 X132.791 Y82.444 E-0.04991
G1 E-0.75009 F2100.00000
G1 Z0.800 F10800.000
G1 X142.103 Y82.920
G1 Z0.200
G1 E0.80000 F2100.00000
G1 F1800
G1 X142.250 Y82.281 E0.01514
G1 X142.334 Y81.670 E0.01307
G1 X142.357 Y81.148 E0.01033
G1 X142.356 Y81.061 E0.00167
G1 X142.299 Y80.397 E0.01221
G1 X142.180 Y79.942 E0.00861
G1 X142.039 Y79.584 E0.01028
G1 F8640
G1 X142.180 Y79.942 E-0.08879
G1 E-0.71121 F2100.00000
G1 Z0.800 F10800.000
G1 X141.964 Y104.996
G1 Z0.200
G1 E0.80000 F2100.00000
G1 F1800
G1 X141.964 Y105.192 E0.00614
G1 X132.642 Y105.192 E0.29228
G1 X132.642 Y104.996 E0.00614
G1 X141.904 Y104.996 E0.29040
G1 X141.609 Y105.569 F10800.000
G1 F1800
G1 X132.265 Y105.569 E0.29297
G1 X132.265 Y104.619 E0.02979
G1 X141.609 Y104.619 E0.29297
G1 X141.609 Y101.466 E0.09886
G1 X142.341 Y101.466 E0.02295
G1 X142.341 Y108.729 E0.22773
G1 X141.609 Y108.729 E0.02295
G1 X141.609 Y105.629 E0.09720
G1 X141.579 Y105.170 F10800.000
G1 X141.975 Y105.381
G1 F1800
G1 X141.975 Y108.541 E0.09326
G1 F8640
G1 X141.975 Y105.381 E-0.72965
G1 E-0.07035 F2100.00000
G1 Z0.800 F10800.000
G1 X141.975 Y104.808
G1 Z0.200
G1 E0.80000 F2100.00000
G1 F1800
G1 X141.975 Y101.655 E0.09305
G1 F8640
G1 X141.975 Y104.808 E-0.72803
G1 E-0.07197 F2100.00000
G1 Z0.800 F10800.000
G1 X109.844 Y82.730
G1 Z0.200
G1 E0.80000 F2100.00000
G1 F1800
G1 X109.813 Y82.726 E0.00097
G1 X110.231 Y83.157 F10800.000
G1 F1800
G1 X108.282 Y82.920 E0.06157
G1 X108.282 Y82.631 E0.00906
G1 X110.210 Y82.264 E0.06155
G1 X110.230 Y83.097 E0.02611
G1 F8640
G1 X108.282 Y82.920 E-0.45162
G1 X108.282 Y82.631 E-0.06673
G1 X109.310 Y82.436 E-0.24165
G1 E-0.04000 F2100.00000
G1 Z0.800 F10800.000
G1 X113.734 Y81.594
G1 Z0.200
G1 E0.80000 F2100.00000
G1 F1800
G1 X114.924 Y81.368 E0.03796
G1 X113.793 Y81.583 E0.03608
G1 F8640
G1 X114.924 Y81.368 E-0.26573
G1 X113.793 Y81.583 E-0.26573
G1 E-0.26855 F2100.00000
G1 Z0.800 F10800.000
G1 X116.277 Y81.110
G1 Z0.200
G1 E0.80000 F2100.00000
G1 F1800
G1 X116.273 Y80.361 E0.02350
G1 X117.604 Y80.591 E0.04235
G1 X117.604 Y80.858 E0.00837
G1 X116.336 Y81.099 E0.04046
G1 F8640
G1 X116.273 Y80.361 E-0.17109
G1 X117.604 Y80.591 E-0.31191
G1 X117.604 Y80.858 E-0.06161
G1 X116.688 Y81.032 E-0.21539
G1 E-0.04000 F2100.00000
G1 Z0.800 F10800.000
G1 X110.047 Y78.687
G1 Z0.200
G1 E0.80000 F2100.00000
G1 F1800
G1 X110.040 Y78.685 E0.00024
G1 X110.433 Y78.261 F10800.000
G1 F1800
G1 X110.416 Y79.132 E0.02731
G1 X108.282 Y78.767 E0.06787
G1 X108.282 Y78.504 E0.00825
G1 X117.604 Y77.420 E0.29425
G1 X117.604 Y77.484 E0.00201
G1 X111.760 Y78.143 E0.18439
G1 X110.493 Y78.256 E0.03990
G1 X110.803 Y78.607 F10800.000
G1 F1800
G1 X110.794 Y79.073 E0.01462
G1 X111.770 Y79.199 E0.03084
G1 X117.981 Y80.274 E0.19765
G1 X117.981 Y81.170 E0.02811
G1 X111.521 Y82.399 E0.20617
