; generated by Slic3r Prusa Edition 1.40.1+ on 2020-11-13 at 16:10:17

; 

; external perimeters extrusion width = 0.45mm
; perimeters extrusion width = 0.45mm
; infill extrusion width = 0.45mm
; solid infill extrusion width = 0.45mm
; top infill extrusion width = 0.40mm
; first layer extrusion width = 0.42mm

; external perimeters extrusion width = 0.45mm
; perimeters extrusion width = 0.45mm
; infill extrusion width = 0.45mm
; solid infill extrusion width = 0.45mm
; top infill extrusion width = 0.40mm
; first layer extrusion width = 0.42mm

M107
M115 U3.8.1 ; tell printer latest fw version
M201 X1000 Y1000 Z1000 E9000 ; sets maximum accelerations, mm/sec^2
M203 X200 Y200 Z12 E120 ; sets maximum feedrates, mm/sec
M204 S1250 T1250 ; sets acceleration (S) and retract acceleration (T)
M205 X8 Y8 Z0.4 E1.5 ; sets the jerk limits, mm/sec
M205 S0 T0 ; sets the minimum extruding and travel feed rate, mm/sec
M83  ; extruder relative mode
M104 S255 ; set extruder temp
M140 S110 ; set bed temp
M190 S110 ; wait for bed temp
M109 S255 ; wait for extruder temp
G28 W ; home all without mesh bed level
G80 ; mesh bed leveling
G1 Y-3.0 F1000.0 ; go outside print area
G92 E0.0
G1 X60.0 E9.0  F1000.0 ; intro line
G1 X100.0 E12.5  F1000.0 ; intro line
G92 E0.0
M221 S95
M900 K30; Filament gcode
G21 ; set units to millimeters
G90 ; use absolute coordinates
M83 ; use relative distances for extrusion
T0
M900 K30; Filament gcode
;BEFORE_LAYER_CHANGE
G92 E0.0
;0.2


G1 E-0.80000 F2100.00000
G1 Z0.600 F10800.000
;AFTER_LAYER_CHANGE
;0.2
G1 X101.520 Y74.444
G1 Z0.200
G1 E0.80000 F2100.00000
M204 S1000
G1 F1800
G1 X102.449 Y73.249 E0.04749
G1 X103.636 Y72.333 E0.04701
G1 X105.045 Y71.736 E0.04799
G1 X106.433 Y71.525 E0.04402
G1 X143.364 Y71.517 E1.15795
G1 X144.629 Y71.661 E0.03992
G1 X145.252 Y71.839 E0.02029
G1 X146.386 Y72.346 E0.03897
G1 X147.520 Y73.217 E0.04482
G1 X148.332 Y74.221 E0.04050
G1 X148.642 Y74.760 E0.01950
G1 X149.103 Y75.931 E0.03943
G1 X149.292 Y77.213 E0.04065
G1 X149.302 Y132.582 E1.73606
G1 X149.095 Y134.099 E0.04800
G1 X148.480 Y135.556 E0.04957
G1 X147.559 Y136.746 E0.04719
G1 X146.349 Y137.676 E0.04784
G1 X144.934 Y138.270 E0.04812
G1 X143.499 Y138.479 E0.04547
G1 X106.581 Y138.482 E1.15756
G1 X105.077 Y138.273 E0.04760
G1 X103.624 Y137.660 E0.04943
G1 X102.431 Y136.736 E0.04733
G1 X101.506 Y135.530 E0.04765
G1 X100.911 Y134.116 E0.04810
G1 X100.700 Y132.647 E0.04652
G1 X100.698 Y77.418 E1.73168
G1 X100.905 Y75.901 E0.04800
G1 X101.496 Y74.500 E0.04768
G1 X101.841 Y74.645 F10800.000
G1 F1800
G1 X102.716 Y73.515 E0.04479
G1 X103.834 Y72.654 E0.04426
G1 X105.158 Y72.095 E0.04507
G1 X106.471 Y71.900 E0.04161
G1 X143.364 Y71.894 E1.15677
G1 X144.561 Y72.032 E0.03779
G1 X145.108 Y72.188 E0.01783
G1 X146.188 Y72.666 E0.03702
G1 X147.262 Y73.492 E0.04248
G1 X148.025 Y74.441 E0.03818
G1 X148.301 Y74.920 E0.01734
G1 X148.738 Y76.028 E0.03734
G1 X148.917 Y77.257 E0.03894
G1 X148.925 Y132.576 E1.73449
G1 X148.731 Y134.000 E0.04508
G1 X148.153 Y135.368 E0.04654
G1 X147.289 Y136.482 E0.04420
G1 X146.156 Y137.352 E0.04481
G1 X144.831 Y137.908 E0.04507
G1 X143.474 Y138.103 E0.04297
G1 X106.593 Y138.105 E1.15640
G1 X105.176 Y137.910 E0.04483
G1 X103.812 Y137.334 E0.04642
G1 X102.698 Y136.469 E0.04420
G1 X101.830 Y135.337 E0.04473
G1 X101.275 Y134.016 E0.04493
G1 X101.077 Y132.633 E0.04382
G1 X101.075 Y77.424 E1.73102
G1 X101.269 Y76.000 E0.04508
G1 X101.818 Y74.700 E0.04422
G1 F8640
G1 X102.716 Y73.515 E-0.34328
G1 X103.834 Y72.654 E-0.32594
G1 X104.196 Y72.501 E-0.09078
G1 E-0.04000 F2100.00000
G1 Z0.800 F10800.000
G1 X112.627 Y119.062
G1 Z0.200
G1 E0.80000 F2100.00000
G1 F1800
G1 X113.031 Y119.056 E0.01266
G1 X113.271 Y119.945 E0.02885
G1 X114.368 Y123.481 E0.11610
G1 X111.343 Y123.481 E0.09485
G1 X112.415 Y119.942 E0.11595
G1 X112.613 Y119.120 E0.02651
G1 X112.662 Y118.663 F10800.000
G1 X112.608 Y118.685
G1 F1800
G1 X112.570 Y118.685 E0.00117
G1 X112.770 Y118.034 E0.02136
G1 X113.016 Y118.034 E0.00771
G1 X113.214 Y118.677 E0.02108
G1 X112.668 Y118.684 E0.01715
G1 F8640
G1 X112.570 Y118.685 E-0.02248
G1 X112.770 Y118.034 E-0.15728
G1 X113.016 Y118.034 E-0.05679
G1 X113.214 Y118.677 E-0.15526
G1 X112.668 Y118.684 E-0.12629
G1 E-0.28191 F2100.00000
G1 Z0.800 F10800.000
G1 X114.480 Y123.893
G1 Z0.200
G1 E0.80000 F2100.00000
G1 F1800
G1 X111.212 Y123.893 E0.10249
G1 X110.643 Y125.685 E0.05895
G1 X110.027 Y125.685 E0.01929
G1 X112.491 Y117.657 E0.26330
G1 X113.294 Y117.657 E0.02517
G1 X115.773 Y125.685 E0.26344
G1 X115.055 Y125.685 E0.02252
G1 X114.499 Y123.950 E0.05713
G1 X114.398 Y123.502 F10800.000
G1 F8640
G1 X111.212 Y123.893 E-0.75912
G1 X111.210 Y123.897 E-0.00088
G1 E-0.04000 F2100.00000
G1 Z0.800 F10800.000
G1 X115.356 Y125.496
G1 Z0.200
G1 E0.80000 F2100.00000
G1 F1800
G1 X113.606 Y119.847 E0.15746
G1 X113.321 Y118.864 E0.02727
G1 X112.397 Y118.876 F10800.000
G1 F1800
G1 X112.262 Y119.370 E0.00817
G1 X112.127 Y119.864 E0.00940
G1 X110.393 Y125.496 E0.11298
G1 F8640
G1 X111.361 Y122.351 E-0.76000
G1 E-0.04000 F2100.00000
G1 Z0.800 F10800.000
G1 X136.812 Y91.925
G1 Z0.200
G1 E0.80000 F2100.00000
G1 F1800
G1 X136.410 Y91.728 E0.01404
G1 X136.057 Y91.410 E0.01490
G1 X135.751 Y90.979 E0.01658
G1 X135.504 Y90.434 E0.01877
G1 X135.331 Y89.777 E0.02131
G1 X135.229 Y89.010 E0.02426
G1 X135.195 Y88.131 E0.02757
G1 X135.229 Y87.252 E0.02757
G1 X135.331 Y86.485 E0.02426
G1 X135.504 Y85.828 E0.02131
G1 X135.751 Y85.283 E0.01877
G1 X136.057 Y84.852 E0.01658
G1 X136.410 Y84.534 E0.01490
G1 X136.812 Y84.337 E0.01404
G1 X137.255 Y84.271 E0.01403
G1 X137.698 Y84.337 E0.01403
G1 X138.100 Y84.534 E0.01404
G1 X138.453 Y84.852 E0.01490
G1 X138.759 Y85.283 E0.01658
G1 X139.006 Y85.828 E0.01877
G1 X139.179 Y86.485 E0.02131
G1 X139.282 Y87.252 E0.02426
G1 X139.315 Y88.131 E0.02757
G1 X139.282 Y89.010 E0.02757
G1 X139.179 Y89.777 E0.02426
G1 X139.006 Y90.434 E0.02131
G1 X138.759 Y90.979 E0.01877
G1 X138.453 Y91.410 E0.01658
G1 X138.100 Y91.728 E0.01490
G1 X137.698 Y91.925 E0.01404
G1 X137.255 Y91.991 E0.01403
G1 X136.872 Y91.934 E0.01215
G1 X136.518 Y92.196 F10800.000
G1 X136.095 Y92.123
G1 F1800
G1 X135.635 Y91.778 E0.01803
G1 X135.244 Y91.285 E0.01970
G1 X134.930 Y90.661 E0.02190
G1 X134.703 Y89.927 E0.02410
G1 X134.566 Y89.083 E0.02683
G1 X134.519 Y88.128 E0.02996
G1 X134.566 Y87.176 E0.02988
G1 X134.703 Y86.333 E0.02677
G1 X134.930 Y85.600 E0.02406
G1 X135.244 Y84.977 E0.02189
G1 X135.635 Y84.484 E0.01970
G1 X136.095 Y84.139 E0.01803
G1 X136.632 Y83.932 E0.01805
G1 X137.255 Y83.862 E0.01967
G1 X137.881 Y83.932 E0.01975
G1 X138.420 Y84.140 E0.01808
G1 X138.880 Y84.484 E0.01803
G1 X139.269 Y84.976 E0.01967
G1 X139.581 Y85.600 E0.02187
G1 X139.808 Y86.333 E0.02406
G1 X139.945 Y87.176 E0.02677
G1 X139.991 Y88.128 E0.02988
G1 X139.945 Y89.083 E0.02996
G1 X139.808 Y89.927 E0.02683
G1 X139.581 Y90.662 E0.02409
G1 X139.269 Y91.286 E0.02188
G1 X138.880 Y91.778 E0.01967
G1 X138.420 Y92.122 E0.01803
G1 X137.881 Y92.330 E0.01808
G1 X137.255 Y92.400 E0.01975
G1 X136.632 Y92.330 E0.01967
G1 X136.151 Y92.144 E0.01617
G1 X136.088 Y91.723 F10800.000
G1 X136.266 Y91.927
G1 F1800
G1 X136.685 Y92.111 E0.00421
G1 X136.761 Y92.133 E0.00045
G1 X136.266 Y91.927 F10800.000
G1 F1800
G1 X136.219 Y91.898 E0.00061
G1 X135.858 Y91.601 E0.00674
G1 X135.831 Y91.575 E0.00056
G1 X135.490 Y91.117 E0.01012
G1 X135.211 Y90.527 E0.01295
G1 X135.017 Y89.847 E0.01576
G1 X134.898 Y89.048 E0.01801
G1 X134.857 Y88.128 E0.02050
G1 X134.898 Y87.211 E0.02044
G1 X135.016 Y86.415 E0.01794
G1 X135.211 Y85.735 E0.01576
G1 X135.501 Y85.127 E0.00969
G1 X135.831 Y84.687 E0.00794
G1 X136.219 Y84.364 E0.00727
G1 X136.761 Y84.129 E0.00338
G1 X137.749 Y84.128 F10800.000
G1 F1800
G1 X138.295 Y84.365 E0.00346
G1 X138.682 Y84.688 E0.00736
G1 X139.011 Y85.127 E0.00801
G1 X139.300 Y85.734 E0.00983
G1 X139.494 Y86.415 E0.01581
G1 X139.613 Y87.211 E0.01799
G1 X139.653 Y88.128 E0.02051
G1 X139.613 Y89.048 E0.02057
G1 X139.494 Y89.847 E0.01806
G1 X139.300 Y90.528 E0.01581
G1 X139.022 Y91.118 E0.01304
G1 X138.682 Y91.574 E0.01021
G1 X138.654 Y91.602 E0.00061
G1 X138.295 Y91.897 E0.00678
G1 X138.244 Y91.928 E0.00066
G1 X137.828 Y92.111 E0.00424
G1 X137.749 Y92.134 E0.00048
G1 F8640
G1 X137.828 Y92.111 E-0.01904
G1 E-0.78096 F2100.00000
G1 Z0.800 F10800.000
G1 X135.911 Y118.197
G1 Z0.200
G1 E0.80000 F2100.00000
G1 F1800
G1 X135.911 Y121.369 E0.09946
G1 X138.939 Y121.369 E0.09494
G1 X138.939 Y121.781 E0.01292
G1 X135.911 Y121.781 E0.09494
G1 X135.911 Y125.145 E0.10548
G1 X139.362 Y125.145 E0.10820
G1 X139.362 Y125.685 E0.01693
G1 X135.235 Y125.685 E0.12940
G1 X135.235 Y117.657 E0.25171
G1 X139.275 Y117.657 E0.12667
G1 X139.275 Y118.197 E0.01693
G1 X135.971 Y118.197 E0.10359
G1 X135.512 Y118.218 F10800.000
G1 X135.623 Y117.973
G1 F1800
G1 X135.573 Y118.008 E0.00153
G1 X135.573 Y125.334 E0.18242
G1 X135.623 Y125.369 E0.00153
G1 X135.673 Y125.392 E0.00115
G1 X135.723 Y125.415 E0.00095
G1 X139.174 Y125.415 E0.04675
G1 F8640
G1 X135.882 Y125.415 E-0.76000
G1 E-0.04000 F2100.00000
G1 Z0.800 F10800.000
G1 X139.087 Y117.927
G1 Z0.200
G1 E0.80000 F2100.00000
G1 F1800
G1 X135.723 Y117.927 E0.04558
G1 X135.623 Y117.973 E0.00148
G1 F8640
G1 X135.723 Y117.927 E-0.02525
G1 X138.905 Y117.927 E-0.73475
G1 E-0.04000 F2100.00000
G1 Z0.800 F10800.000
G1 X114.749 Y83.992
G1 Z0.200
G1 E0.80000 F2100.00000
G1 F1800
G1 X115.338 Y83.992 E0.01848
G1 X115.338 Y89.292 E0.16617
G1 X115.317 Y89.836 E0.01709
G1 X115.254 Y90.309 E0.01494
G1 X115.152 Y90.712 E0.01304
G1 X115.010 Y91.049 E0.01146
G1 X114.837 Y91.337 E0.01055
G1 X114.639 Y91.587 E0.00999
G1 X114.419 Y91.797 E0.00953
G1 X114.177 Y91.968 E0.00930
G1 X113.906 Y92.101 E0.00946
G1 X113.598 Y92.197 E0.01012
G1 X113.250 Y92.256 E0.01105
G1 X112.863 Y92.276 E0.01217
G1 X112.500 Y92.258 E0.01139
G1 X112.162 Y92.207 E0.01072
G1 X111.849 Y92.121 E0.01017
G1 X111.562 Y92.003 E0.00975
G1 X111.306 Y91.854 E0.00929
G1 X111.086 Y91.673 E0.00892
G1 X110.899 Y91.460 E0.00889
G1 X110.746 Y91.216 E0.00903
G1 X110.624 Y90.898 E0.01068
G1 X110.533 Y90.454 E0.01421
G1 X110.477 Y89.882 E0.01801
G1 X110.458 Y89.184 E0.02189
G1 X110.458 Y83.992 E0.16280
G1 X111.133 Y83.992 E0.02116
G1 X111.133 Y89.339 E0.16766
G1 X111.145 Y89.852 E0.01609
G1 X111.180 Y90.286 E0.01363
G1 X111.241 Y90.641 E0.01130
G1 X111.332 Y90.918 E0.00914
G1 X111.452 Y91.138 E0.00786
G1 X111.601 Y91.329 E0.00759
G1 X111.778 Y91.493 E0.00756
G1 X111.986 Y91.631 E0.00782
G1 X112.369 Y91.787 E0.01299
G1 X112.669 Y91.850 E0.00960
G1 X112.922 Y91.864 E0.00795
G1 X113.185 Y91.849 E0.00826
G1 X113.437 Y91.801 E0.00802
G1 X113.675 Y91.721 E0.00789
G1 X113.901 Y91.608 E0.00792
G1 X114.110 Y91.458 E0.00805
G1 X114.289 Y91.270 E0.00816
G1 X114.437 Y91.048 E0.00837
G1 X114.555 Y90.792 E0.00884
G1 X114.643 Y90.468 E0.01052
G1 X114.703 Y90.047 E0.01333
G1 X114.738 Y89.526 E0.01638
G1 X114.749 Y84.052 E0.17163
G1 X115.095 Y84.193 F10800.000
G1 X115.043 Y84.181
G1 F1800
G1 X115.033 Y89.533 E0.09916
G1 X114.992 Y90.073 E0.00964
G1 X114.915 Y90.518 E0.00767
G1 X114.802 Y90.875 E0.00549
G1 X114.654 Y91.164 E0.00383
G1 X114.476 Y91.414 E0.00292
G1 X114.273 Y91.619 E0.00224
G1 X114.019 Y91.797 E0.00211
G1 X113.760 Y91.920 E0.00161
G1 X113.552 Y91.988 E0.00099
G1 X112.598 Y92.051 F10800.000
G1 F1800
G1 X112.301 Y92.001 E0.00147
G1 X111.861 Y91.852 E0.00226
G1 X111.683 Y91.758 E0.00284
G1 X111.474 Y91.612 E0.00359
G1 X111.302 Y91.450 E0.00333
G1 X111.182 Y91.303 E0.00267
G1 X111.036 Y91.060 E0.00625
G1 X110.925 Y90.730 E0.00768
G1 X110.853 Y90.333 E0.00887
G1 X110.811 Y89.861 E0.01044
G1 X110.796 Y89.180 E0.01502
G1 X110.796 Y84.181 E0.11014
G1 F8640
G1 X110.796 Y89.180 E-1.15428
G1 X110.811 Y89.861 E-0.15745
G1 X110.853 Y90.333 E-0.10944
G1 X110.925 Y90.730 E-0.09296
G1 X111.036 Y91.060 E-0.08046
G1 X111.182 Y91.303 E-0.06548
G1 E-2.33993 F2100.00000
G1 Z0.800 F10800.000
; Filament-specific end gcode
M600
T1
M900 K30; Filament gcode
G1 E-0.80000 F2100.00000
G1 X101.633 Y76.101 F10800.000
G1 Z0.200
G1 E0.80000 F2100.00000
G1 F1800
G1 X102.172 Y74.823 E0.04349
G1 X102.985 Y73.780 E0.04146
G1 X104.032 Y72.975 E0.04142
G1 X105.268 Y72.456 E0.04202
G1 X106.504 Y72.276 E0.03916
G1 X143.364 Y72.271 E1.15572
G1 X144.494 Y72.403 E0.03569
G1 X144.968 Y72.538 E0.01544
G1 X145.991 Y72.988 E0.03504
G1 X147.004 Y73.767 E0.04008
G1 X147.721 Y74.663 E0.03597
G1 X147.958 Y75.078 E0.01498
G1 X148.374 Y76.126 E0.03536
G1 X148.542 Y77.295 E0.03702
G1 X148.548 Y132.566 E1.73297
G1 X148.367 Y133.899 E0.04220
G1 X147.828 Y135.177 E0.04349
G1 X147.025 Y136.213 E0.04111
G1 X145.962 Y137.029 E0.04201
G1 X144.722 Y137.547 E0.04213
G1 X143.453 Y137.727 E0.04019
G1 X106.600 Y137.728 E1.15550
G1 X105.277 Y137.546 E0.04185
G1 X104.003 Y137.008 E0.04338
G1 X102.967 Y136.205 E0.04111
G1 X102.155 Y135.147 E0.04180
G1 X101.637 Y133.912 E0.04200
G1 X101.454 Y132.614 E0.04110
G1 X101.452 Y77.434 E1.73011
G1 X101.625 Y76.160 E0.04032
G1 F8640
G1 X102.172 Y74.823 E-0.33367
G1 X102.985 Y73.780 E-0.30532
G1 X103.400 Y73.460 E-0.12101
G1 E-0.04000 F2100.00000
G1 Z0.800 F10800.000
G1 X111.624 Y116.483
G1 Z0.200
G1 E0.80000 F2100.00000
G1 F1800
G1 X114.160 Y116.483 E0.07954
G1 X117.365 Y126.859 E0.34050
G1 X114.199 Y126.859 E0.09927
G1 X113.624 Y125.067 E0.05901
G1 X112.071 Y125.067 E0.04870
G1 X111.502 Y126.859 E0.05895
G1 X108.439 Y126.859 E0.09604
G1 X111.606 Y116.540 E0.33844
G1 X111.902 Y116.860 F10800.000
G1 F1800
G1 X113.882 Y116.860 E0.06208
G1 X116.854 Y126.482 E0.31576
G1 X114.474 Y126.482 E0.07462
G1 X113.899 Y124.690 E0.05901
G1 X111.795 Y124.690 E0.06598
G1 X111.226 Y126.482 E0.05895
G1 X108.949 Y126.482 E0.07139
G1 X111.885 Y116.917 E0.31371
G1 X112.181 Y117.237 F10800.000
G1 F1800
G1 X113.604 Y117.237 E0.04462
G1 X116.343 Y126.105 E0.29101
G1 X114.749 Y126.105 E0.04997
G1 X114.174 Y124.313 E0.05901
G1 X111.519 Y124.313 E0.08325
G1 X110.950 Y126.105 E0.05895
G1 X109.459 Y126.105 E0.04674
G1 X112.163 Y117.294 E0.28897
G1 X112.199 Y116.837 F10800.000
G1 F8640
G1 X113.604 Y117.237 E-0.33293
G1 X114.150 Y119.004 E-0.42707
G1 E-0.04000 F2100.00000
G1 Z0.800 F10800.000
G1 X104.682 Y110.475
G1 Z0.200
G1 E0.80000 F2100.00000
G1 F1800
G1 X104.884 Y109.986 E0.01659
G1 X105.206 Y109.566 E0.01660
G1 X105.626 Y109.244 E0.01660
G1 X106.115 Y109.042 E0.01659
G1 X106.703 Y108.964 E0.01859
G1 X118.947 Y108.966 E0.38390
G1 X119.525 Y109.042 E0.01827
G1 X120.014 Y109.244 E0.01659
G1 X120.434 Y109.566 E0.01660
G1 X120.756 Y109.986 E0.01660
G1 X120.955 Y110.467 E0.01632
G1 X121.036 Y111.065 E0.01891
G1 X121.036 Y132.477 E0.67136
G1 X120.958 Y133.065 E0.01860
G1 X120.756 Y133.554 E0.01659
G1 X120.434 Y133.974 E0.01660
G1 X120.014 Y134.296 E0.01660
G1 X119.525 Y134.498 E0.01659
G1 X118.937 Y134.576 E0.01859
G1 X106.703 Y134.576 E0.38358
G1 X106.115 Y134.498 E0.01859
G1 X105.626 Y134.296 E0.01659
G1 X105.206 Y133.974 E0.01660
G1 X104.884 Y133.554 E0.01660
G1 X104.682 Y133.065 E0.01659
G1 X104.604 Y132.477 E0.01860
G1 X104.604 Y111.063 E0.67141
G1 X104.674 Y110.535 E0.01671
G1 X104.314 Y110.377 F10800.000
G1 F1800
G1 X104.555 Y109.796 E0.01971
G1 X104.937 Y109.297 E0.01971
G1 X105.436 Y108.915 E0.01971
G1 X106.017 Y108.674 E0.01971
G1 X106.678 Y108.587 E0.02092
G1 X118.972 Y108.588 E0.38545
G1 X119.623 Y108.674 E0.02060
G1 X120.204 Y108.915 E0.01971
G1 X120.703 Y109.297 E0.01971
G1 X121.085 Y109.796 E0.01971
G1 X121.322 Y110.368 E0.01941
G1 X121.413 Y111.039 E0.02124
G1 X121.413 Y132.502 E0.67293
G1 X121.326 Y133.163 E0.02093
G1 X121.085 Y133.744 E0.01971
G1 X120.703 Y134.243 E0.01971
G1 X120.204 Y134.625 E0.01971
G1 X119.623 Y134.866 E0.01971
G1 X118.962 Y134.953 E0.02093
G1 X106.678 Y134.953 E0.38513
G1 X106.017 Y134.866 E0.02093
G1 X105.436 Y134.625 E0.01971
G1 X104.937 Y134.243 E0.01971
G1 X104.555 Y133.744 E0.01971
G1 X104.314 Y133.163 E0.01971
G1 X104.227 Y132.502 E0.02093
G1 X104.227 Y111.038 E0.67296
G1 X104.306 Y110.436 E0.01905
G1 X103.947 Y110.278 F10800.000
G1 F1800
G1 X104.225 Y109.606 E0.02282
G1 X104.668 Y109.028 E0.02282
G1 X105.246 Y108.585 E0.02282
G1 X105.918 Y108.307 E0.02282
G1 X106.654 Y108.210 E0.02326
G1 X118.997 Y108.211 E0.38700
G1 X119.722 Y108.307 E0.02293
